public/img/clients/ratesdotca.svg

<svg width="200" height="100" viewBox="0 0 200 100" fill="none" xmlns="http://www.w3.org/2000/svg">
<g clip-path="url(#clip0_2:651)">
<path d="M28 41.5699C28.1359 41.4774 28.2889 41.4128 28.45 41.3799C30.93 41.3799 33.45 41.3799 35.89 41.5099C36.8755 41.5394 37.8362 41.8263 38.6765 42.3421C39.5168 42.8578 40.2075 43.5845 40.68 44.4499C41.4105 45.7559 41.6166 47.2911 41.2563 48.7435C40.8959 50.1959 39.9963 51.4568 38.74 52.2699C38.18 52.6099 38.18 52.6399 38.55 53.1799C39.47 54.5199 40.38 55.8599 41.32 57.1799C41.4604 57.3342 41.6181 57.4718 41.79 57.5899C41.931 57.4298 42.055 57.2556 42.16 57.0699C44.16 52.0299 46.16 46.9899 48.16 41.9499C48.2055 41.7529 48.3231 41.58 48.4897 41.4652C48.6562 41.3505 48.8597 41.3022 49.06 41.3299C50.06 41.3799 51.15 41.3299 52.19 41.3299C52.3811 41.3017 52.5759 41.3454 52.7366 41.4525C52.8973 41.5597 53.0125 41.7227 53.06 41.9099C55.06 46.9966 57.06 52.0766 59.06 57.1499C59.24 57.6299 59.44 58.0999 59.61 58.5899C59.78 59.0799 59.61 59.2099 59.21 59.2099C57.89 59.2099 56.57 59.2099 55.21 59.2099C55.0958 59.1916 54.9874 59.1468 54.8936 59.0791C54.7999 59.0114 54.7233 58.9226 54.67 58.8199C54.35 58.0999 54.09 57.3499 53.82 56.6099C53.7869 56.4776 53.7066 56.362 53.5943 56.2847C53.482 56.2073 53.3454 56.1736 53.21 56.1899H47.84C47.765 56.1756 47.6879 56.1764 47.6133 56.1924C47.5387 56.2084 47.468 56.2393 47.4055 56.2831C47.343 56.3269 47.29 56.3829 47.2495 56.4476C47.2091 56.5123 47.182 56.5845 47.17 56.6599C46.92 57.3999 46.62 58.1299 46.36 58.8699C46.3313 58.9953 46.2571 59.1055 46.1518 59.1794C46.0466 59.2533 45.9177 59.2855 45.79 59.2699C43.01 59.2699 40.24 59.2699 37.46 59.2699C37.3272 59.2515 37.1995 59.2067 37.0844 59.1379C36.9693 59.0692 36.8692 58.9781 36.79 58.8699C35.7 57.2099 34.65 55.5199 33.57 53.8699C33.4067 53.7012 33.2177 53.5594 33.01 53.4499C32.895 53.6591 32.8139 53.8852 32.77 54.1199C32.77 55.6299 32.77 57.1199 32.77 58.6399C32.77 59.2499 32.7 59.3099 32.08 59.3099C30.92 59.3099 29.75 59.3099 28.59 59.3099C28.3791 59.2792 28.1737 59.2186 27.98 59.1299L28 41.5699ZM32.79 47.5699C32.7599 48.0294 32.7599 48.4904 32.79 48.9499C32.79 49.1299 33.03 49.4099 33.17 49.4199C33.8003 49.4701 34.4342 49.45 35.06 49.3599C35.4709 49.2813 35.8428 49.0651 36.1144 48.7468C36.3859 48.4285 36.5408 48.0272 36.5536 47.609C36.5665 47.1908 36.4364 46.7807 36.1848 46.4464C35.9333 46.1121 35.5754 45.8735 35.17 45.7699C34.5595 45.6965 33.9449 45.663 33.33 45.6699C32.95 45.6699 32.8 45.8299 32.81 46.1799L32.79 47.5699ZM50.55 52.1499H51.68C52.05 52.1499 52.23 51.9899 52.09 51.5999C51.69 50.5099 51.3 49.4099 50.88 48.3299C50.83 48.1899 50.66 48.0199 50.54 48.0199C50.42 48.0199 50.25 48.1799 50.2 48.3099C49.78 49.3899 49.38 50.4799 48.98 51.5699C48.84 51.9699 48.98 52.1599 49.42 52.1499H50.55Z" fill="black"/>
<path d="M172.17 59.05C171.972 59.1375 171.764 59.198 171.55 59.23C170.29 59.23 169.02 59.23 167.75 59.23C167.607 59.244 167.464 59.2063 167.347 59.1237C167.229 59.0411 167.145 58.9192 167.11 58.78C166.87 58.07 166.57 57.37 166.32 56.66C166.289 56.5107 166.202 56.3786 166.078 56.2898C165.954 56.2009 165.801 56.1618 165.65 56.18C163.87 56.18 162.09 56.18 160.31 56.18C160.157 56.1644 160.005 56.2059 159.881 56.2964C159.757 56.3869 159.671 56.52 159.64 56.67C159.4 57.38 159.12 58.08 158.87 58.79C158.837 58.9322 158.752 59.0569 158.632 59.14C158.511 59.2231 158.365 59.2588 158.22 59.24C157.01 59.24 155.79 59.24 154.58 59.24C154.01 59.24 153.86 59.02 154.07 58.5C156.27 52.94 158.467 47.3767 160.66 41.81C160.699 41.6711 160.785 41.5502 160.904 41.468C161.023 41.3859 161.166 41.3477 161.31 41.36C162.46 41.36 163.61 41.36 164.75 41.36C164.902 41.3437 165.055 41.3834 165.181 41.4718C165.306 41.5601 165.394 41.691 165.43 41.84C167.29 46.56 169.16 51.28 171.04 56C171.4 56.92 171.79 57.83 172.17 58.74V59.05ZM162.98 52.15H164.17C164.54 52.15 164.68 51.95 164.56 51.61C164.16 50.5 163.76 49.4 163.34 48.3C163.306 48.2262 163.257 48.1609 163.194 48.109C163.132 48.057 163.059 48.0198 162.98 48C162.89 48 162.72 48.16 162.67 48.28C162.25 49.39 161.85 50.49 161.45 51.6C161.31 51.98 161.45 52.15 161.87 52.15H162.98Z" fill="black"/>
<path d="M95.8 50.28C95.8 47.62 95.8 44.97 95.8 42.28C95.8 41.4 95.8 41.36 96.73 41.36C98.43 41.36 100.12 41.36 101.82 41.36C105.95 41.46 108.97 43.28 110.66 47.14C110.736 47.2641 110.826 47.3783 110.93 47.48C111.059 47.3597 111.17 47.2217 111.26 47.07C111.794 45.5764 112.714 44.2505 113.926 43.2267C115.137 42.2029 116.598 41.5175 118.16 41.2401C119.78 40.8699 121.469 40.9409 123.052 41.4457C124.635 41.9505 126.054 42.8706 127.16 44.11C127.304 44.2368 127.462 44.3475 127.63 44.44C127.706 44.2648 127.757 44.0796 127.78 43.89C127.78 43.22 127.78 42.55 127.78 41.89C127.78 41.53 127.92 41.36 128.3 41.36C132.253 41.36 136.21 41.36 140.17 41.36C140.6 41.36 140.67 41.61 140.67 41.96C140.67 43.07 140.67 44.18 140.67 45.3C140.67 45.67 140.52 45.82 140.15 45.82H137.58C136.58 45.82 136.58 45.82 136.58 46.82V58.44C136.58 59.18 136.58 59.2 135.79 59.19H132.5C131.87 59.19 131.82 59.1901 131.82 58.5201V46.66C131.82 45.81 131.82 45.8101 130.97 45.8101H129.07C128.5 45.8101 128.47 45.8801 128.69 46.4001C129.369 47.9107 129.632 49.5756 129.45 51.2219C129.269 52.8682 128.65 54.436 127.658 55.7625C126.667 57.089 125.338 58.1259 123.81 58.7655C122.282 59.4051 120.611 59.6242 118.97 59.4001C117.243 59.2413 115.598 58.5921 114.229 57.529C112.859 56.4659 111.822 55.0332 111.24 53.4001C111.18 53.2601 111.03 53.1601 110.93 53.0401C110.826 53.1418 110.736 53.256 110.66 53.3801C110.074 54.8901 109.091 56.214 107.815 57.2119C106.539 58.2099 105.017 58.8449 103.41 59.05C102.9 59.1218 102.385 59.1486 101.87 59.1301H96.48C95.88 59.1301 95.8 59.04 95.8 58.44V50.28ZM115.56 50.28C115.545 50.8928 115.654 51.5022 115.879 52.0721C116.105 52.642 116.443 53.1606 116.873 53.5973C117.303 54.0339 117.817 54.3796 118.383 54.6137C118.949 54.8478 119.557 54.9656 120.17 54.96C121.403 54.96 122.586 54.4701 123.458 53.5981C124.33 52.7261 124.82 51.5433 124.82 50.3101C124.82 49.0768 124.33 47.894 123.458 47.022C122.586 46.15 121.403 45.66 120.17 45.66C119.561 45.6547 118.958 45.7709 118.395 46.0019C117.832 46.233 117.321 46.5741 116.891 47.0054C116.462 47.4367 116.123 47.9494 115.894 48.5134C115.666 49.0775 115.552 49.6815 115.56 50.2901V50.28ZM100.56 50.28C100.56 51.56 100.56 52.8501 100.56 54.1301C100.56 54.5601 100.72 54.77 101.16 54.76C101.6 54.75 101.91 54.76 102.29 54.76C103.035 54.7044 103.755 54.4611 104.381 54.0528C105.007 53.6444 105.519 53.0843 105.871 52.4246C106.222 51.7648 106.401 51.0269 106.39 50.2795C106.379 49.5321 106.18 48.7996 105.81 48.1501C105.349 47.3516 104.663 46.7067 103.838 46.2958C103.013 45.885 102.085 45.7265 101.17 45.84C100.71 45.84 100.52 46.01 100.53 46.48C100.57 47.75 100.55 49.0201 100.55 50.2901L100.56 50.28Z" fill="black"/>
<path d="M87.95 41C89.1964 40.9538 90.4345 41.2195 91.5522 41.7731C92.6698 42.3267 93.6315 43.1506 94.35 44.17C94.73 44.69 94.69 44.85 94.14 45.17C93.24 45.73 92.33 46.27 91.45 46.85C91.3809 46.9248 91.2939 46.9808 91.1972 47.0127C91.1005 47.0445 90.9973 47.0513 90.8973 47.0323C90.7973 47.0133 90.7038 46.9692 90.6255 46.904C90.5472 46.8389 90.4868 46.7549 90.45 46.66C90.1886 46.2104 89.7909 45.8557 89.3145 45.6472C88.8381 45.4386 88.3076 45.3871 87.8 45.5C87.5868 45.5299 87.3889 45.6277 87.2357 45.7791C87.0826 45.9304 86.9824 46.1272 86.95 46.34C86.9203 46.5584 86.9708 46.7801 87.0922 46.964C87.2136 47.1479 87.3976 47.2815 87.61 47.34L90.61 48.49C91.7885 48.8691 92.8539 49.5358 93.71 50.43C94.1611 50.9856 94.497 51.6255 94.6982 52.3123C94.8994 52.9991 94.9617 53.7191 94.8817 54.4303C94.8016 55.1415 94.5807 55.8296 94.2319 56.4545C93.8831 57.0794 93.4133 57.6286 92.85 58.07C91.9744 58.7056 90.9777 59.1546 89.9214 59.3891C88.8652 59.6236 87.7721 59.6387 86.7098 59.4333C85.6476 59.228 84.6388 58.8067 83.746 58.1954C82.8533 57.5842 82.0956 56.7961 81.52 55.88C81.3 55.49 81.33 55.23 81.73 55C82.73 54.43 83.73 53.86 84.65 53.27C85.06 53.02 85.31 53.1 85.57 53.5C85.8796 54.0287 86.3371 54.4552 86.8862 54.7271C87.4353 54.999 88.0518 55.1043 88.66 55.03C88.9659 54.9975 89.2602 54.8948 89.52 54.73C89.6354 54.6619 89.7326 54.5668 89.8032 54.453C89.8739 54.3391 89.9159 54.2098 89.9258 54.0762C89.9356 53.9425 89.9129 53.8085 89.8597 53.6855C89.8064 53.5626 89.7242 53.4543 89.62 53.37C89.3215 53.127 88.9832 52.9375 88.62 52.81C87.82 52.5 87.01 52.25 86.2 51.95C84.8338 51.5181 83.6398 50.6637 82.79 49.51C82.339 48.7712 82.0683 47.9366 82 47.0737C81.9317 46.2108 82.0676 45.344 82.3968 44.5434C82.726 43.7429 83.2392 43.0312 83.8947 42.4659C84.5502 41.9007 85.3297 41.4978 86.17 41.29C86.7559 41.1523 87.3507 41.0554 87.95 41Z" fill="black"/>
<path d="M69.96 50.2801C69.96 47.6135 69.96 44.9235 69.96 42.2101C69.96 41.4301 70.02 41.3701 70.8 41.3701H79.9C80.6 41.3701 80.69 41.4601 80.69 42.1701C80.69 43.1101 80.69 44.0501 80.69 45.0001C80.69 45.6501 80.59 45.7501 79.95 45.7501H75.48C74.83 45.7501 74.79 45.7501 74.79 46.4601V47.3901C74.79 48.1001 74.85 48.1601 75.54 48.1601H79.17C79.81 48.1601 79.88 48.2301 79.88 48.8601C79.88 49.8001 79.88 50.7501 79.88 51.6901C79.88 52.1701 79.71 52.3701 79.22 52.3601C77.95 52.3601 76.68 52.3601 75.42 52.3601C74.93 52.3601 74.72 52.5301 74.75 53.0301C74.78 53.4396 74.78 53.8507 74.75 54.2601C74.75 54.7401 74.94 54.9001 75.39 54.8901H79.97C80.63 54.8901 80.71 54.9701 80.71 55.6201V58.4501C80.71 59.2001 80.65 59.2501 79.88 59.2501H70.78C70 59.2501 69.93 59.1801 69.93 58.4101C69.95 55.6601 69.96 52.9901 69.96 50.2801Z" fill="black"/>
<path d="M153.85 44.2101C153.85 44.6901 153.85 45.2101 153.85 45.6501C153.85 46.3901 153.36 46.6501 152.68 46.4001C151.392 45.7712 149.928 45.6018 148.53 45.9201C147.497 46.21 146.6 46.8554 145.997 47.7423C145.394 48.6292 145.124 49.7006 145.234 50.7675C145.344 51.8343 145.827 52.828 146.599 53.5731C147.37 54.3183 148.38 54.767 149.45 54.8401C150.483 54.8992 151.514 54.6998 152.45 54.2601C153.24 53.9001 153.72 54.2001 153.72 55.0701C153.72 55.9401 153.72 56.8501 153.72 57.7401C153.74 57.9891 153.676 58.2375 153.538 58.4458C153.4 58.6542 153.197 58.8106 152.96 58.8901C151.657 59.4686 150.235 59.7292 148.811 59.6505C147.388 59.5717 146.003 59.1558 144.772 58.4371C143.54 57.7184 142.497 56.7173 141.728 55.5165C140.96 54.3156 140.487 52.9493 140.35 51.5301C140.102 49.8839 140.306 48.2014 140.939 46.6618C141.572 45.1223 142.612 43.7834 143.946 42.7878C145.28 41.7923 146.859 41.1774 148.515 41.0088C150.172 40.8401 151.842 41.124 153.35 41.8301C153.517 41.8961 153.66 42.0123 153.758 42.1627C153.857 42.3131 153.906 42.4904 153.9 42.6701C153.84 43.1801 153.85 43.6601 153.85 44.2101Z" fill="black"/>
<path d="M60.29 52.5401V46.5401C60.29 45.9301 60.22 45.8601 59.61 45.8601H56.84C56.39 45.8601 56.22 45.6801 56.23 45.2501C56.23 44.1501 56.23 43.0601 56.23 41.9601C56.23 41.4901 56.42 41.3301 56.87 41.3301H68.54C69.02 41.3301 69.22 41.5101 69.21 42.0001C69.21 43.0001 69.21 44.0901 69.21 45.1301C69.21 45.7601 69.12 45.8601 68.51 45.8601H65.82C65.19 45.8601 65.12 45.9301 65.12 46.5701V58.4201C65.12 59.1901 65.12 59.2401 64.31 59.2401C63.18 59.2401 62.05 59.2401 60.92 59.2401C60.46 59.2401 60.28 59.0501 60.28 58.5901C60.2933 56.5767 60.2967 54.5601 60.29 52.5401Z" fill="black"/>
</g>
<defs>
<clipPath id="clip0_2:651">
<rect width="144.13" height="18.61" fill="white" transform="translate(28 41)"/>
</clipPath>
</defs>
</svg>

<svg xmlns="http://www.w3.org/2000/svg" focusable="false" role="img" viewBox="0 0 200 100" fill="currentColor">
  <g clip-path="url(#clip0_2:651)">
    <path d="M28 41.57c.136-.093.289-.157.45-.19 2.48 0 5 0 7.44.13a5.65 5.65 0 014.79 2.94 5.89 5.89 0 01-1.94 7.82c-.56.34-.56.37-.19.91.92 1.34 1.83 2.68 2.77 4 .14.154.298.292.47.41.141-.16.265-.334.37-.52l6-15.12a.81.81 0 01.9-.62c1 .05 2.09 0 3.13 0a.78.78 0 01.87.58c2 5.087 4 10.167 6 15.24.18.48.38.95.55 1.44.17.49 0 .62-.4.62h-4a.741.741 0 01-.54-.39c-.32-.72-.58-1.47-.85-2.21a.56.56 0 00-.61-.42h-5.37a.571.571 0 00-.67.47c-.25.74-.55 1.47-.81 2.21a.52.52 0 01-.57.4h-8.33a.999.999 0 01-.67-.4c-1.09-1.66-2.14-3.35-3.22-5a2.221 2.221 0 00-.56-.42c-.115.21-.196.435-.24.67v4.52c0 .61-.07.67-.69.67h-3.49a2.24 2.24 0 01-.61-.18L28 41.57zm4.79 6c-.03.46-.03.92 0 1.38 0 .18.24.46.38.47.63.05 1.264.03 1.89-.06a1.84 1.84 0 00.11-3.59 14.108 14.108 0 00-1.84-.1c-.38 0-.53.16-.52.51l-.02 1.39zm17.76 4.58h1.13c.37 0 .55-.16.41-.55-.4-1.09-.79-2.19-1.21-3.27-.05-.14-.22-.31-.34-.31-.12 0-.29.16-.34.29-.42 1.08-.82 2.17-1.22 3.26-.14.4 0 .59.44.58h1.13zM172.17 59.05a2.424 2.424 0 01-.62.18h-3.8a.598.598 0 01-.64-.45c-.24-.71-.54-1.41-.79-2.12a.609.609 0 00-.67-.48h-5.34a.62.62 0 00-.67.49c-.24.71-.52 1.41-.77 2.12a.59.59 0 01-.65.45h-3.64c-.57 0-.72-.22-.51-.74 2.2-5.56 4.397-11.123 6.59-16.69a.619.619 0 01.65-.45h3.44a.628.628 0 01.68.48c1.86 4.72 3.73 9.44 5.61 14.16.36.92.75 1.83 1.13 2.74v.31zm-9.19-6.9h1.19c.37 0 .51-.2.39-.54-.4-1.11-.8-2.21-1.22-3.31a.548.548 0 00-.36-.3c-.09 0-.26.16-.31.28-.42 1.11-.82 2.21-1.22 3.32-.14.38 0 .55.42.55h1.11zM95.8 50.28v-8c0-.88 0-.92.93-.92h5.09c4.13.1 7.15 1.92 8.84 5.78.076.124.166.238.27.34.129-.12.24-.258.33-.41a8.996 8.996 0 016.9-5.83 9.29 9.29 0 019 2.87c.144.127.302.237.47.33.076-.175.127-.36.15-.55v-2c0-.36.14-.53.52-.53h11.87c.43 0 .5.25.5.6v3.34c0 .37-.15.52-.52.52h-2.57c-1 0-1 0-1 1v11.62c0 .74 0 .76-.79.75h-3.29c-.63 0-.68 0-.68-.67V46.66c0-.85 0-.85-.85-.85h-1.9c-.57 0-.6.07-.38.59a9.276 9.276 0 01-1.032 9.362 9.272 9.272 0 01-8.688 3.638 9.09 9.09 0 01-7.73-6c-.06-.14-.21-.24-.31-.36a1.759 1.759 0 00-.27.34 8.997 8.997 0 01-7.25 5.67 8.791 8.791 0 01-1.54.08h-5.39c-.6 0-.68-.09-.68-.69v-8.16zm19.76 0a4.576 4.576 0 001.313 3.317 4.573 4.573 0 003.297 1.363 4.65 4.65 0 000-9.3 4.566 4.566 0 00-4.276 2.853 4.58 4.58 0 00-.334 1.777v-.01zm-15 0v3.85c0 .43.16.64.6.63.44-.01.75 0 1.13 0a4.432 4.432 0 004.1-4.48 4.433 4.433 0 00-.58-2.13 4.693 4.693 0 00-4.64-2.31c-.46 0-.65.17-.64.64.04 1.27.02 2.54.02 3.81l.01-.01zM87.95 41a7.49 7.49 0 016.4 3.17c.38.52.34.68-.21 1-.9.56-1.81 1.1-2.69 1.68a.6.6 0 01-1-.19 2.45 2.45 0 00-2.65-1.16 1 1 0 00-.85.84.91.91 0 00.66 1l3 1.15a7.45 7.45 0 013.1 1.94 5.39 5.39 0 01-.86 7.64 7.9 7.9 0 01-11.33-2.19c-.22-.39-.19-.65.21-.88 1-.57 2-1.14 2.92-1.73.41-.25.66-.17.92.23a3.14 3.14 0 003.09 1.53 2 2 0 00.86-.3.83.83 0 00.1-1.36 3.332 3.332 0 00-1-.56c-.8-.31-1.61-.56-2.42-.86a6.77 6.77 0 01-3.41-2.44 5.51 5.51 0 013.38-8.22c.586-.138 1.18-.235 1.78-.29zM69.96 50.28v-8.07c0-.78.06-.84.84-.84h9.1c.7 0 .79.09.79.8V45c0 .65-.1.75-.74.75h-4.47c-.65 0-.69 0-.69.71v.93c0 .71.06.77.75.77h3.63c.64 0 .71.07.71.7v2.83c0 .48-.17.68-.66.67h-3.8c-.49 0-.7.17-.67.67.03.41.03.82 0 1.23 0 .48.19.64.64.63h4.58c.66 0 .74.08.74.73v2.83c0 .75-.06.8-.83.8h-9.1c-.78 0-.85-.07-.85-.84.02-2.75.03-5.42.03-8.13z"/>
    <path d="M153.85 44.21v1.44c0 .74-.49 1-1.17.75a6.28 6.28 0 00-4.15-.48 4.55 4.55 0 00.92 8.92 6.219 6.219 0 003-.58c.79-.36 1.27-.06 1.27.81v2.67a1.116 1.116 0 01-.76 1.15 9 9 0 01-12.61-7.36 9.198 9.198 0 0113-9.7.867.867 0 01.55.84c-.06.51-.05.99-.05 1.54zM60.29 52.54v-6c0-.61-.07-.68-.68-.68h-2.77c-.45 0-.62-.18-.61-.61v-3.29c0-.47.19-.63.64-.63h11.67c.48 0 .68.18.67.67v3.13c0 .63-.09.73-.7.73h-2.69c-.63 0-.7.07-.7.71v11.85c0 .77 0 .82-.81.82h-3.39c-.46 0-.64-.19-.64-.65.013-2.013.017-4.03.01-6.05z"/>
  </g>
  <defs>
    <clipPath id="clip0_2:651">
      <path d="M0 0h144.13v18.61H0z" transform="translate(28 41)"/>
    </clipPath>
  </defs>
</svg>
